X:1
T:Title
%%score { 1 | ( 2 3 ) }
L:1/8
Q:1/4=112
M:3/4
K:Db
V:1 treble nm="Grand Piano"
V:2 bass 
V:3 bass 
V:1
 F2 F2 F2 | F4 F2 | G2 d2 G2 | F6 | F2 F2 G2 | F2 E2 F2 | G4 [CG]2 | F4 z2 | F2 F2 F2 | F4 F2 | %10
w: R.~Frank~Lehman * *||||||||||
 G2 d2 G2 | F6 | [FA]2 [FA]2 [FA]2 | G2 D2 G2 | F4 [CE]2 | D4 z2 | D2 G2 B2 | d4 B2 | [GB]4 [FA]2 | %19
w: |||||||||
 [FA]4 z2 | G2 d2 G2 | F2 d2 [DF]2 | [A,CF]4[K:bass] [G,CE]2 | [F,D]4 z2 |] %24
w: |||||
V:2
 [D,A,D]2 [D,A,D]2 [D,A,D]2 | [D,A,D]4 [D,A,D]2 | [D,B,D]4 [D,B,D]2 | [D,A,D]6 | %4
 [D,A,D]2 [D,A,D]2 [D,A,D]2 | [G,B,D]4 [F,B,=D]2 | [E,B,E]4 [A,,A,]2 | [D,A,D]4 z2 | %8
 [D,A,D]2 [D,A,D]2 [D,A,D]2 | [D,A,D]4 [D,_CD]2 | [G,B,D]4 [G,=A,D]2 | [D,A,D]6 | %12
 [D,D]2 [D,D]2 [D,_C]2 | D2 z2 z2 | [A,D]4 [A,,G,]2 | [D,F,]4 z2 | [G,B,]2 [G,B,D]2 [G,DG]2 | %17
 [G,B,G]4 [G,DG]2 | [D,D]4 [D,D]2 | [D,D]4 z2 | [G,B,D]2 [G,B,G]2 [G,B,D]2 | D2 z2[K:bass] z2 | %22
 A,,4 A,,2 | D,4 z2 |] %24
V:3
 x6 | x6 | x6 | x6 | x6 | x6 | x6 | x6 | x6 | x6 | x6 | x6 | x6 | [G,B,]4 [G,B,D]2 | x6 | x6 | x6 | %17
 x6 | x6 | x6 | x6 | A,2- [A,F]2[K:bass] A,2 | x6 | x6 |] %24

